!!!COM: Palestrina, Giovanni Perluigi da
!!!OPR: Tu es Petrus (1601)
!!!OTL: Credo
**kern	**kern	**kern	**kern	**kern	**kern
*Ibass	*Itenor	*Itenor	*Icalto	*Icalto	*Icant
!Bassus	!Tenor 2	!Tenor 1	!Altus 2	!Altus 1	!Cantus
*clefF4	*clefGv2	*clefGv2	*clefG2	*clefG2	*clefG2
*k[]	*k[]	*k[]	*k[]	*k[]	*k[]
*G:mix	*G:mix	*G:mix	*G:mix	*G:mix	*G:mix
*M4/2	*M4/2	*M4/2	*M4/2	*M4/2	*M4/2
=1	=1	=1	=1	=1	=1
1G	0r	1d	0r	0r	0r
2G	.	2B	.	.	.
2G	.	2B	.	.	.
=2	=2	=2	=2	=2	=2
2B	0r	2d	2r	0r	0r
2B	.	2d	2g	.	.
1c	.	1e	2g	.	.
.	.	.	2g	.	.
=3	=3	=3	=3	=3	=3
[0G	0r	0d	2.b	1g	1dd
.	.	.	4cc	.	.
.	.	.	4dd	2g	2b
.	.	.	4cc	.	.
.	.	.	4b	2g	2b
.	.	.	4a	.	.
=4	=4	=4	=4	=4	=4
1G]	0r	0r	2g	2b	2dd
.	.	.	2g	2b	2dd
1r	.	.	1c	1cc	1ee
=5	=5	=5	=5	=5	=5
1G	1d	2r	1g	2b	1dd
.	.	2B	.	2g	.
2G	2B	2d	1r	2g	1r
2E	2B	2G	.	2g	.
=6	=6	=6	=6	=6	=6
1D	1d	1A	0r	1f#	1r
2C	2e	1c	.	2g	2r
[2c	[2e	.	.	2g	2cc
=7	=7	=7	=7	=7	=7
4c]	4e]	1G	2r	1g	2dd
8B	4d	.	.	.	.
8A	.	.	.	.	.
2B	2.d	.	2g	.	2dd
1c	.	2r	2e	1g	1ee
.	4c	.	.	.	.
.	[2c	2c	2e	.	.
=8	=8	=8	=8	=8	=8
1G	4c]	2d	1g	0r	1dd
.	4B	.	.	.	.
.	2B	2d	.	.	.
1c	2.A	2e	2a	.	2cc
.	.	2c	2a	.	[2ee
.	4B	.	.	.	.
=9	=9	=9	=9	=9	=9
2C	4c	1e	0g	0r	4ee]
.	4G	.	.	.	4dd
2C	2.g	.	.	.	1cc
1G	.	1d	.	.	.
.	4f	.	.	.	.
.	2d	.	.	.	2b
=10	=10	=10	=10	=10	=10
0C	1e	0c	2g	2r	0cc
.	.	.	1e	1g	.
.	1r	.	.	.	.
.	.	.	2g	2e	.
=11	=11	=11	=11	=11	=11
0r	0r	0r	2a	2f	2r
.	.	.	2b	2e	1gg
.	.	.	1cc	1c	.
.	.	.	.	.	2ee
=12	=12	=12	=12	=12	=12
0r	0r	0r	2a	2d	2ff
.	.	.	2g	2e	2ee
.	.	.	2.a	2.f	1cc
.	.	.	4g	4g	.
=13	=13	=13	=13	=13	=13
0r	0r	0r	4f	4a	2dd
.	.	.	4g	4b	.
.	.	.	2e	1cc	2ee
.	.	.	1d	.	2ff
.	.	.	.	2b	4ee
.	.	.	.	.	4dd
=14	=14	=14	=14	=14	=14
2r	1g	2r	1c	0cc	1ee
1c	.	1e	.	.	.
.	2e	.	1r	.	1r
2A	2f	2c	.	.	.
=15	=15	=15	=15	=15	=15
2B-	2g	2d	2r	0r	0r
2A	2.a	2e	1cc	.	.
2.F	.	2f	.	.	.
.	4g	.	.	.	.
.	2f	2a	2a	.	.
4F	.	.	.	.	.
=16	=16	=16	=16	=16	=16
1G	4e	2.g	2b-	0r	0r
.	4d	.	.	.	.
.	1d	.	2b-	.	.
.	.	4f	.	.	.
1A	.	1e	2.a	.	.
.	2c#	.	.	.	.
.	.	.	4a	.	.
=17	=17	=17	=17	=17	=17
2r	2d	2r	1a	2r	2r
1D	1f#	1d	.	1a	1dd
.	.	.	2r	.	.
2D	2f#	2d	[2d	2a	2dd
=18	=18	=18	=18	=18	=18
2.G	2.g	2.B	2d]	2.b	2.dd
.	.	.	2d	.	.
4G	4g	4B	.	4b	4dd
2G	2d	2B	2.g	2b	2dd
2G	2g	2B	.	2b	2ee
.	.	.	4g	.	.
=19	=19	=19	=19	=19	=19
0F	1c	0A	2a	1cc	1ff
.	.	.	2a	.	.
.	2r	.	1a	1f	[1ff
.	[2c	.	.	.	.
=20	=20	=20	=20	=20	=20
0C	4c]	0c	1r	0g	2ff]
.	4d	.	.	.	.
.	4e	.	.	.	4ee
.	4f	.	.	.	4dd
.	2g	.	[1cc	.	1ee
.	[2G	.	.	.	.
=21	=21	=21	=21	=21	=21
0G	4G]	2.d	2cc]	2r	1dd
.	4A	.	.	.	.
.	4B	.	4b	2.g	.
.	4c	4c	4a	.	.
.	2d	4B	2b	.	1g
.	.	4G	.	4f	.
.	[2e	2g	2b	4e	.
.	.	.	.	4d	.
=22	=22	=22	=22	=22	=22
2.A	4e]	1e	0a	1c	1.cc
.	4d	.	.	.	.
.	4c	.	.	.	.
4G	4B	.	.	.	.
1F	1A	1f	.	1c	.
.	.	.	.	.	2dd
=23	=23	=23	=23	=23	=23
2C	1c	2e	1g	2r	0ee
2.c	.	2.e	.	2.g	.
.	1r	.	1r	.	.
4c	.	4e	.	4g	.
2c	.	2e	.	2g	.
=24	=24	=24	=24	=24	=24
1F	0r	1a	1r	1f	2r
.	.	.	.	.	2.cc
1C	.	1g	2r	2e	.
.	.	.	.	.	4cc
.	.	.	[2g	[2e	2cc
=25	=25	=25	=25	=25	=25
2E	2r	0r	4g]	4e]	1b
.	.	.	4g	4d	.
2G	2.d	.	2g	4B	.
.	.	.	.	4c	.
4D	.	.	2f	2d	1a
4E	4d	.	.	.	.
4F	2d	.	2f	[2A	.
4G	.	.	.	.	.
=26	=26	=26	=26	=26	=26
2A	2c	0r	2e	2A]	2cc
2F	2A	.	2f	2.a	2cc
1G	2B	.	[1d	.	2.b
.	.	.	.	4g	.
.	2G	.	.	[2g	.
.	.	.	.	.	8a
.	.	.	.	.	8g
=27	=27	=27	=27	=27	=27
1D	2.d	2r	2d]	2g]	2a
.	.	1d	2a	2f#	2a
.	4d	.	.	.	.
2r	4G	.	[1b	1g	1g
.	4A	.	.	.	.
[2G	4B	2d	.	.	.
.	4c	.	.	.	.
=28	=28	=28	=28	=28	=28
2G]	1d	2.g	1b]	2r	0r
2G	.	.	.	1g	.
.	.	4f	.	.	.
2.c	2r	4e	1r	.	.
.	.	4d	.	.	.
.	[2e	2c	.	2g	.
4B	.	.	.	.	.
=29	=29	=29	=29	=29	=29
2A	2e]	2c	0r	2cc	0r
2G	2e	2.e	.	2b	.
1F	[1a	.	.	2cc	.
.	.	8d	.	.	.
.	.	8c	.	.	.
.	.	2d	.	4b	.
.	.	.	.	4a	.
=30	=30	=30	=30	=30	=30
1E	2a]	1e	1r	2cc	2r
.	2g	.	.	2b	1ee
1r	1f	1r	2r	1a	.
.	.	.	[2a	.	2dd
=31	=31	=31	=31	=31	=31
0r	1e	0r	2a]	1b	1.ee
.	.	.	2g	.	.
.	2.A	.	[1cc	2r	.
.	.	.	.	[2a	2ff
.	4B	.	.	.	.
=32	=32	=32	=32	=32	=32
0r	4c	0r	2cc]	2a]	2.ee
.	4d	.	.	.	.
.	2e	.	2b	2g	.
.	.	.	.	.	8dd
.	.	.	.	.	8ee
.	1A	.	1a	1cc	2ff
.	.	.	.	.	[2ee
=33	=33	=33	=33	=33	=33
0r	0r	1r	2g	2b	4ee]
.	.	.	.	.	4dd
.	.	.	2f	2a	1dd
.	.	2r	1e	2.g	.
.	.	[2g	.	.	2cc#
.	.	.	.	4g	.
=34	=34	=34	=34	=34	=34
2r	1r	2g]	1d	1a	1dd
1d	.	1f	.	.	.
.	1a	.	1r	1r	1r
[2c	.	4e	.	.	.
.	.	4d	.	.	.
=35	=35	=35	=35	=35	=35
2c]	2.g	2e	0r	0r	2r
2B	.	2d	.	.	1dd
.	8f	.	.	.	.
.	8e	.	.	.	.
1A	2f	1a	.	.	.
.	2e	.	.	.	[2cc
=36	=36	=36	=36	=36	=36
1G	1g	1d	2r	0r	2cc]
.	.	.	1g	.	2b
1r	1d	2r	.	.	[1a
.	.	[2d	[2f	.	.
=37	=37	=37	=37	=37	=37
1r	0r	2d]	2f]	0r	1a]
.	.	1c	2e	.	.
1G	.	.	[1d	.	1g
.	.	2B	.	.	.
=38	=38	=38	=38	=38	=38
2F	0r	2A	2d]	2r	0r
2E	.	2G	2c#	1g	.
2D	.	2.A	1d	.	.
2D	.	.	.	[2f	.
.	.	4B	.	.	.
=39	=39	=39	=39	=39	=39
1C	0r	1c	2r	2f]	1gg
.	.	.	2g	2e	.
1r	.	1r	2a	2d	2ff
.	.	.	2cc	2c	2ee
=40	=40	=40	=40	=40	=40
1r	2r	0r	2cc	1g	2dd
.	2.g	.	2b	.	2dd
2r	.	.	2cc	1c	2cc
.	4f	.	.	.	.
[2c	4e	.	[2g	.	[2ee
.	4d	.	.	.	.
=41	=41	=41	=41	=41	=41
2c]	2c	0r	2g]	1r	2ee]
2B	2d	.	2g	.	2dd
1A	2e	.	1a	2r	2cc
.	2f	.	.	[2cc	2a
=42	=42	=42	=42	=42	=42
1G	2.g	2r	1d	2cc]	2r
.	.	2g	.	2b	2dd
.	8f	.	.	.	.
.	8e	.	.	.	.
1r	1d	2g	1r	2b	2dd
.	.	2f	.	[2a	2dd
=43	=43	=43	=43	=43	=43
0r	1r	1e	0r	4a]	4cc
.	.	.	.	4g	4b
.	.	.	.	1g	4b
.	.	.	.	.	8a
.	.	.	.	.	8g
.	2r	1d	.	.	1a
.	2d	.	.	2f#	.
=44	=44	=44	=44	=44	=44
1G	2.d	2r	2r	1g	2b
.	.	2d	2g	.	2b
.	4c	.	.	.	.
2G	2B	2d	2g	2r	2b
2C	2G	2c	2e	2g	2cc
=45	=45	=45	=45	=45	=45
1G	4G	1B	2d	2g	0dd
.	4A	.	.	.	.
.	4B	.	1g	2g	.
.	4G	.	.	.	.
1D	1d	1A	.	1a	.
.	.	.	2f#	.	.
=46	=46	=46	=46	=46	=46
1G	1d	1G	1g	1b	1dd
1r	1r	2.c	2.g	2.cc	2.ee
.	.	4c	4g	4cc	4ee
=47	=47	=47	=47	=47	=47
0r	0r	2c	2g	2cc	2ee
.	.	2c	2a	2cc	2ee
.	.	1d	1f#	1a	1dd
=48	=48	=48	=48	=48	=48
1r	2r	1e	1g	4g	1b
.	.	.	.	4a	.
.	1e	.	.	4b	.
.	.	.	.	4g	.
2.A	.	2.c	1r	[1a	2.cc
.	2e	.	.	.	.
4A	.	4c	.	.	4cc
=49	=49	=49	=49	=49	=49
2A	2e	2c	0r	1a]	2cc
2A	2c	2A	.	.	2cc
2G	2d	2B	.	1r	2b
2E	[2e	2c	.	.	2g
=50	=50	=50	=50	=50	=50
1F	2e]	1A	1r	0r	1a
.	2d	.	.	.	.
2.E	1e	2B	2r	.	[1g
.	.	[2c	[2e	.	.
4F	.	.	.	.	.
=51	=51	=51	=51	=51	=51
1G	0r	2c]	2e]	1r	1g]
.	.	2B	2d	.	.
1C	.	2.c	2.e	2r	2r
.	.	.	.	[2cc	[2ee
.	.	4d	4f	.	.
=52	=52	=52	=52	=52	=52
0r	1r	2e	1g	2cc]	2ee]
.	.	4g	.	2b	2dd
.	.	4f	.	.	.
.	2r	4e	2.c	2.cc	2.ee
.	.	4d	.	.	.
.	[2e	[2c	.	.	.
.	.	.	4d	4b	4dd
=53	=53	=53	=53	=53	=53
0r	2e]	2c]	2e	2a	2cc
.	2d	2B	1g	4g	2.dd
.	.	.	.	4f	.
.	2.e	1c	.	2e	.
.	.	.	.	.	4cc
.	.	.	[2g	2c	[2cc
.	4f	.	.	.	.
=54	=54	=54	=54	=54	=54
0r	2g	1G	4g]	1d	2cc]
.	.	.	4f	.	.
.	1g	.	2d	.	2b
.	.	2r	1e	1c	[1cc
.	2e	2g	.	.	.
=55	=55	=55	=55	=55	=55
1c	1e	2g	0r	2r	0cc]
.	.	1g	.	2e	.
2c	1r	.	.	2e	.
2c	.	[2a	.	2e	.
=56	=56	=56	=56	=56	=56
2.d	0r	4a]	1r	2f	0r
.	.	4g	.	.	.
.	.	2f	.	2a	.
4c	.	.	.	.	.
2B	.	2.g	2r	2d	.
[2c	.	.	2g	[2e	.
.	.	4f	.	.	.
=57	=57	=57	=57	=57	=57
4c]	0r	4e	2g	4e]	1cc
4B	.	4d	.	4f	.
4A	.	2e	2g	2.g	.
4G	.	.	.	.	.
2A	.	2e	2c	.	2cc
.	.	.	.	4f	.
2A	.	2c	[2cc	4f	2cc
.	.	.	.	4e	.
=58	=58	=58	=58	=58	=58
1G	2r	0r	4cc]	1g	2.dd
.	.	.	4b	.	.
.	2d	.	2b	.	.
.	.	.	.	.	4cc
1r	2e	.	2g	1r	2b
.	2c	.	[2a	.	[2cc
=59	=59	=59	=59	=59	=59
0r	1e	1r	4a]	1r	4cc]
.	.	.	4g	.	4b
.	.	.	1g	.	4b
.	.	.	.	.	8a
.	.	.	.	.	8g
.	2.d	2r	.	2r	2.a
.	.	2d	2f#	2a	.
.	4d	.	.	.	4a
=60	=60	=60	=60	=60	=60
1G	2G	2d	1g	2b	1g
.	2g	2d	.	2b	.
2C	2g	1e	1r	2.cc	2r
2C	2g	.	.	.	2cc
.	.	.	.	4b	.
=61	=61	=61	=61	=61	=61
1F	1a	2c	0r	4a	2cc
.	.	.	.	4g	.
.	.	2.A	.	4f	2cc
.	.	.	.	4g	.
2D	2f	.	.	2a	2dd
.	.	4F	.	.	.
2C	2g	2c	.	2e	[2ee
=62	=62	=62	=62	=62	=62
1D	4g	0A	1r	1a	4ee]
.	4f	.	.	.	4dd
.	4f	.	.	.	1dd
.	8e	.	.	.	.
.	8d	.	.	.	.
1A	1e	.	2r	1a	.
.	.	.	2a	.	2cc#
=63	=63	=63	=63	=63	=63
1D	1d	2A	1a	0f#	0dd
.	.	2A	.	.	.
2r	1r	1a	1d	.	.
2d	.	.	.	.	.
=64	=64	=64	=64	=64	=64
1d	1a	2.d	2.f#	1r	2r
.	.	.	.	.	2dd
.	.	4e	4g	.	.
1D	2a	1f#	1a	2r	1dd
.	[2d	.	.	2dd	.
=65	=65	=65	=65	=65	=65
0G	4d]	1g	4b	2dd	2d
.	4c	.	4cc	.	.
.	4B	.	4dd	2d	2g
.	4A	.	4cc	.	.
.	2G	1d	4b	1g	2.b
.	.	.	4a	.	.
.	2B	.	[2g	.	.
.	.	.	.	.	4cc
=66	=66	=66	=66	=66	=66
0D	0A	0d	2g]	0a	0dd
.	.	.	4f#	.	.
.	.	.	4e	.	.
.	.	.	1f#	.	.
=67	=67	=67	=67	=67	=67
1G	1G	1d	1g	1b	1dd
1r	1r	1r	1r	1r	1r
=68	=68	=68	=68	=68	=68
0r	0r	1G	1g	1b	1dd
.	.	2G	2g	2b	2dd
.	.	2G	2g	2b	2dd
=69	=69	=69	=69	=69	=69
0r	0r	1d	1f	1a	1dd
.	.	1A	1e	1a	1cc#
=70	=70	=70	=70	=70	=70
2r	2r	2d	2f	1a	0dd
2D	2d	2f	2a	.	.
2D	2d	2f	2a	1r	.
2D	2d	2f	2a	.	.
=71	=71	=71	=71	=71	=71
1A	1c	1e	1a	0r	0r
1E	1B	1e	1g#	.	.
=72	=72	=72	=72	=72	=72
1A	2A	0c#	2a	1r	2r
.	1A	.	1a	.	1ee
1r	.	.	.	2r	.
.	2A	.	2a	[2a	2ee
=73	=73	=73	=73	=73	=73
0r	1d	0r	0f	2a]	1ff
.	.	.	.	2a	.
.	1d	.	.	2b-	1dd
.	.	.	.	[2a	.
=74	=74	=74	=74	=74	=74
0r	2.c	0r	1g	2a]	2.ee
.	.	.	.	1g	.
.	4B	.	.	.	4dd
.	2A	.	2a	.	2cc
.	2A	.	2a	2f#	2cc
=75	=75	=75	=75	=75	=75
1r	0G	1r	1d	1g	1b
1G	.	1d	2r	1b	1gg
.	.	.	2g	.	.
=76	=76	=76	=76	=76	=76
1c	1r	1e	1g	1cc	1.gg
1B	1G	1d	1g	1dd	.
.	.	.	.	.	2dd
=77	=77	=77	=77	=77	=77
1c	1c	4c	1e	1g	0ee
.	.	4d	.	.	.
.	.	4e	.	.	.
.	.	4f	.	.	.
[1C	1c	2g	2e	2.e	.
.	.	[2g	[2c	.	.
.	.	.	.	4f	.
=78	=78	=78	=78	=78	=78
0C]	1e	4g]	4c]	0g	0cc
.	.	4f	4d	.	.
.	.	4e	4e	.	.
.	.	4d	4f	.	.
.	1e	1c	2g	.	.
.	.	.	2a	.	.
=79	=79	=79	=79	=79	=79
0G	0d	0B	0b	0g	0dd
*	*	*	*	*-	*-
!! Crucifixus
*Itenor	*Icalto	*Icalto	*Icant
!Tenor	!Altus 2	!Altus 1	!Cantus
*clefGv2	*clefG2	*clefG2	*clefG2
*k[]	*k[]	*k[]	*k[]
*G:mix	*G:mix	*G:mix	*G:mix
*M4/2	*M4/2	*M4/2	*M4/2
=80	=80	=80	=80
0r	1r	0r	0dd
.	[1g	.	.
=81	=81	=81	=81
0r	2g]	0r	1b
.	2e	.	.
.	1a	.	1cc
=82	=82	=82	=82
0r	1g	0r	1b
.	2e	.	2g
.	2f#	.	2a
=83	=83	=83	=83
0r	2g	0r	2b
.	2e	.	2cc
.	4d	.	4dd
.	4e	.	4cc
.	4f	.	4a
.	4g	.	4b
=84	=84	=84	=84
0r	4a	1r	4cc
.	4b	.	4dd
.	1cc	.	4ee
.	.	.	4cc
.	.	[1g	1dd
.	2b	.	.
=85	=85	=85	=85
1.c	2cc	1g]	1ee
.	2cc	.	.
.	2g	1e	2.cc
2A	[2a	.	.
.	.	.	4cc
=86	=86	=86	=86
1d	2a]	1f	2a
.	4g	.	2b
.	4f	.	.
2c	2g	1e	[1cc
[2A	2a	.	.
=87	=87	=87	=87
2A]	2e	2c	2cc]
2B	2g	2d	2b
2c	2g	2e	2g
2A	2c	2f	2a
=88	=88	=88	=88
4G	0d	4g	1b
4A	.	4f	.
4B	.	4d	.
4c	.	4e	.
4d	.	4f	2.a
4e	.	4g	.
[2f	.	4a	.
.	.	4f	4b
=89	=89	=89	=89
2f]	1c	1g	1.cc
2e	.	.	.
1f	2r	[1a	.
.	2a	.	2ff
=90	=90	=90	=90
0r	2.cc	1a]	2.ee
.	4b	.	4dd
.	2a	1r	2cc
.	2g	.	2b
=91	=91	=91	=91
2r	1cc	2r	1a
2f	.	2a	.
2.e	2.c	2.cc	1g
4d	4d	4b	.
=92	=92	=92	=92
2c	4e	2a	0r
.	4f	.	.
2B	1g	2g	.
1A	.	1cc	.
.	2f#	.	.
=93	=93	=93	=93
1G	1g	1b	1r
[1c	[1g	[1cc	[1ee
=94	=94	=94	=94
1c]	1g]	1cc]	1ee]
1G	1g	1b	1dd
=95	=95	=95	=95
2.A	2e	1.a	1cc
.	2f	.	.
4B	.	.	.
2c#	2e	.	1a
2d	2a	2f	.
=96	=96	=96	=96
1G	2.g	4e	2b-
.	.	4d	.
.	.	1d	2b-
.	4f	.	.
1A	1e	.	1a
.	.	2c#	.
=97	=97	=97	=97
2d	1f#	2d	2r
2d	.	2a	2dd
2g	1r	2b	2dd
2c	.	2cc	2ee
=98	=98	=98	=98
1d	1r	2a	2ff
.	.	2b	2dd
1A	2r	2.cc	[1ee
.	2a	.	.
.	.	8b	.
.	.	8a	.
=99	=99	=99	=99
0r	2b	2g	1ee]
.	2cc	2a	.
.	2a	2f	1dd
.	2b	2g	.
=100	=100	=100	=100
0r	2.cc	2.c	2ee
.	.	.	2.ee
.	8b	4d	.
.	8a	.	.
.	2g	2e	.
.	.	.	4dd
.	2a	2f	[2cc
=101	=101	=101	=101
2r	2f	1d	2cc]
2G	2g	.	2b
2A	1e	2r	1cc
[2c	.	2g	.
=102	=102	=102	=102
2c]	2r	2a	0r
2B	2g	1g	.
1A	2a	.	.
.	[2cc	2f	.
=103	=103	=103	=103
1G	2cc]	2e	2r
.	2b	2d	2dd
1r	2a	4c	2ee
.	.	4d	.
.	4g	4e	[2gg
.	4a	4c	.
=104	=104	=104	=104
0r	4b	1d	2gg]
.	8a	.	.
.	8g	.	.
.	4a	.	2ff
.	4b	.	.
.	1cc	4c	1ee
.	.	4d	.
.	.	4e	.
.	.	4f	.
=105	=105	=105	=105
1r	1b	1g	1dd
1G	2r	1b	2r
.	[2g	.	[2dd
=106	=106	=106	=106
1d	2g]	1a	2dd]
.	2f#	.	2dd
1g	2g	2b	1dd
.	2b	2g	.
=107	=107	=107	=107
2f	2.cc	2a	2ff
2e	.	2.cc	2gg
.	4b	.	.
2.f	2a	.	[1ff
.	.	4b	.
.	[2cc	4a	.
4e	.	4g	.
=108	=108	=108	=108
1d	4cc]	1f	1ff]
.	8b	.	.
.	8a	.	.
.	2b	.	.
2c	2cc	2g	2ee
2f	2a	2a	2cc
=109	=109	=109	=109
2e	2g	2b	2ee
2c	2a	2cc	2ee
2.d	2.f	2.a	2.ff
4d	4f	4b	4ff
=110	=110	=110	=110
1c	2a	1cc	1ee
.	1g	.	.
1d	.	1a	1dd
.	2f#	.	.
=111	=111	=111	=111
1G	1g	1b	1dd
2r	2r	2r	2r
2G	2b	2g	2dd
=112	=112	=112	=112
2.G	2.b	2.g	2.dd
4G	4b	4g	4dd
2G	2b	2g	2dd
2c	2cc	2g	2ee
=113	=113	=113	=113
2d	2a	2f	2dd
2e	2g	2e	2cc#
2f#	2a	2d	2dd
2g	2b	2G	2dd
=114	=114	=114	=114
2.c	2.cc	2.g	2.ee
4c	4cc	4g	4ee
2c	2cc	2g	2ee
[2f	[2cc	[2a	[2ff
=115	=115	=115	=115
2f]	2cc]	2a]	2ff]
2c	2cc	2g	2ee
[1d	2.a	2f	1dd
.	.	2g	.
.	4g	.	.
=116	=116	=116	=116
1d]	1f	2a	2dd
.	.	2b	2dd
1c	2g	[1cc	2ee
.	2g	.	4gg
.	.	.	4ff
=117	=117	=117	=117
2r	2a	1cc]	4ee
.	.	.	4dd
2c	4cc	.	2ee
.	4b	.	.
2d	4a	1f	2dd
.	4g	.	.
2f	2a	.	[2cc
=118	=118	=118	=118
2e	2g	2c	2cc]
2d	1f	2f	2b
1c	.	2g	[1cc
.	2e	2g	.
=119	=119	=119	=119
2r	2f	1a	1cc]
1f	1a	.	.
.	.	1r	2r
2g	2e	.	[2cc
=120	=120	=120	=120
1a	1f	0r	2cc]
.	.	.	2dd
2g	2c	.	1ee
2c	[2cc	.	.
=121	=121	=121	=121
2.g	2cc]	0r	2dd
.	4b	.	2g
4f	4a	.	.
4e	2b	.	4gg
4d	.	.	4ff
[2c	4cc	.	4ee
.	4b	.	4dd
=122	=122	=122	=122
2c]	4a	1r	2cc
.	4g	.	.
2B	1g	.	2dd
1A	.	1c	2ee
.	2f#	.	4dd
.	.	.	4cc
=123	=123	=123	=123
1G	1g	1d	1.b
2r	2g	1e	.
[2g	2g	.	2cc
=124	=124	=124	=124
2g]	1a	1d	0dd
2f#	.	.	.
1g	1b	2r	.
.	.	[2g	.
=125	=125	=125	=125
1c	2cc	2g]	0ee
.	2g	2.cc	.
2r	2.cc	.	.
.	.	4b	.
2c	.	4a	.
.	4b	4g	.
=126	=126	=126	=126
1d	4a	2f	1dd
.	4g	.	.
.	2f	1a	.
1e	1g	.	2.b
.	.	[2g	.
.	.	.	4cc
=127	=127	=127	=127
1d	1a	2g]	1dd
.	.	2f#	.
2G	1b	1g	2dd
[2g	.	.	2g
=128	=128	=128	=128
4g]	2e	2r	2.gg
4f	.	.	.
4e	2.g	2c	.
4d	.	.	4ff
[1c	.	1g	4ee
.	4f	.	4dd
.	4e	.	4cc
.	4d	.	4dd
=129	=129	=129	=129
2c]	2c	1g	2ee
2B	2d	.	2dd
1c	1e	1g	1cc
=130	=130	=130	=130
0G	0d	0g	0b
*-	*-	*-	*-
!! Et in Spiritum
**kern	**kern	**kern	**kern	**kern	**kern
*Ibass	*Itenor	*Itenor	*Icalto	*Icalto	*Icant
!Bassus	!Tenor 2	!Tenor 1	!Altus 2	!Altus 1	!Cantus
*clefF4	*clefGv2	*clefGv2	*clefG2	*clefG2	*clefG2
*k[]	*k[]	*k[]	*k[]	*k[]	*k[]
*G:mix	*G:mix	*G:mix	*G:mix	*G:mix	*G:mix
*M4/2	*M4/2	*M4/2	*M4/2	*M4/2	*M4/2
=131	=131	=131	=131	=131	=131
0r	0r	1G	1g	1b	1dd
.	.	2G	2g	2b	2dd
.	.	[2c	[2g	[2cc	[2ee
=132	=132	=132	=132	=132	=132
0r	0r	4c]	4g]	4cc]	4ee]
.	.	4c	4g	4cc	4ee
.	.	2d	2f#	2a	2dd
.	.	2e	2g	2g	2b
.	.	2e	2g	2e	2cc
=133	=133	=133	=133	=133	=133
1r	1r	2.d	2.a	2.f#	2.dd
.	.	4d	4b	4f#	4dd
1C	2r	2c	2cc	1g	1ee
.	2e	2c	2g	.	.
=134	=134	=134	=134	=134	=134
2C	2e	2c	2g	0r	0r
1F	1f	1c	1a	.	.
2G	[2e	2B	2g	.	.
=135	=135	=135	=135	=135	=135
1A	4e]	1c	2e	0r	0r
.	4d	.	.	.	.
.	1c	.	2f	.	.
1G	.	1d	1g	.	.
.	2B	.	.	.	.
=136	=136	=136	=136	=136	=136
2r	2c	0r	0r	1g	1ee
2c	2c	.	.	.	.
2B	2d	.	.	2g	2dd
[2c	[2e	.	.	[2g	[2cc
=137	=137	=137	=137	=137	=137
2c]	2e]	0r	0r	2g]	2cc]
2c	2e	.	.	2g	2cc
2A	2.f	.	.	2.a	2.cc
2F	.	.	.	.	.
.	4f	.	.	4a	4cc
=138	=138	=138	=138	=138	=138
2G	2d	0r	0r	2g	2b
1F	2.f	.	.	1a	1cc
.	4e	.	.	.	.
2G	[2d	.	.	2g	2b
=139	=139	=139	=139	=139	=139
1A	2d]	1r	1r	1e	1a
.	2c#	.	.	.	.
1D	1d	2r	2r	2f#	2a
.	.	[2d	[2f#	[2a	[2dd
=140	=140	=140	=140	=140	=140
0r	0r	2d]	2f#]	2a]	2dd]
.	.	2d	2f#	2b	2dd
.	.	1c	1g	1cc	1ee
=141	=141	=141	=141	=141	=141
0r	0r	2G	2g	2b	2dd
.	.	2c	2e	2g	2ee
.	.	2A	2e	2.a	2cc
.	.	2d	2f	.	2dd
.	.	.	.	4b	.
=142	=142	=142	=142	=142	=142
2r	2r	2c	2g	2cc	2ee
1G	1B	1d	1g	1b	1dd
2G	2B	2d	2g	2b	2dd
=143	=143	=143	=143	=143	=143
1G	1d	1B	1g	1.b	1dd
1E	1G	1e	1g	.	1ee
.	.	.	.	2g	.
=144	=144	=144	=144	=144	=144
0D	0d	1A	1.f	4a	0ff
.	.	.	.	4g	.
.	.	.	.	4f	.
.	.	.	.	4e	.
.	.	1B	.	4d	.
.	.	.	.	4c	.
.	.	.	4e	2d	.
.	.	.	4d	.	.
=145	=145	=145	=145	=145	=145
1C	1G	1c	2g	1e	1ee
.	.	.	2g	.	.
2r	2r	2r	2r	2r	2r
2C	2G	2e	2g	2cc	2ee
=146	=146	=146	=146	=146	=146
2G	2B	2d	2g	2b	2dd
2G	2B	2d	2g	2b	2dd
2G	2B	2G	2g	2b	2dd
2E	2e	2G	2g	2g	2ee
=147	=147	=147	=147	=147	=147
0D	1A	0d	1.f	4a	0ff
.	.	.	.	4g	.
.	.	.	.	4f	.
.	.	.	.	4e	.
.	1B	.	.	4d	.
.	.	.	.	4c	.
.	.	.	4e	2d	.
.	.	.	4d	.	.
=148	=148	=148	=148	=148	=148
0C	1c	1G	2g	2e	1ee
.	.	.	2g	1cc	.
.	2.g	2.c	1r	.	2.ee
.	.	.	.	2cc	.
.	4g	4c	.	.	4ee
=149	=149	=149	=149	=149	=149
0r	2g	2c	0r	2cc	2ee
.	2f	2d	.	2a	2dd
.	2e	2e	.	2g	2cc
.	2d	2f	.	2a	2dd
=150	=150	=150	=150	=150	=150
0r	1c	2g	0r	1cc	1ee
.	.	4a	.	.	.
.	.	2g	.	.	.
.	1d	.	.	1a	1dd
.	.	8f#	.	.	.
.	.	8e	.	.	.
.	.	2f#	.	.	.
=151	=151	=151	=151	=151	=151
2r	2G	2g	2r	1g	1b
2G	2d	2g	2b	.	.
2G	2d	2g	2b	1r	1r
2G	2d	2g	2b	.	.
=152	=152	=152	=152	=152	=152
1A	1c	2e	2cc	0r	0r
.	.	2.f	1a	.	.
2F	2c	.	.	.	.
.	.	4e	.	.	.
2G	2B	[2d	2g	.	.
=153	=153	=153	=153	=153	=153
2.E	2.G	2d]	2.g	1r	0r
.	.	2c#	.	.	.
4E	4G	.	4g	.	.
[1D	2A	[1d	1f#	2r	.
.	2d	.	.	2a	.
=154	=154	=154	=154	=154	=154
1D]	2f#	1d]	0r	2a	2r
.	2f#	.	.	2a	2dd
1r	2.g	1r	.	2.b	2dd
.	.	.	.	.	2dd
.	4f	.	.	4a	.
=155	=155	=155	=155	=155	=155
0r	2e	0r	0r	4g	2.ee
.	.	.	.	4g	.
.	2a	.	.	2.cc	.
.	.	.	.	.	4dd
.	2a	.	.	.	2cc
.	.	.	.	4b	.
.	2d	.	.	[2a	2dd
=156	=156	=156	=156	=156	=156
1r	1e	1r	1r	2a]	2b
.	.	.	.	2g#	2b
1D	2r	1f	2r	1a	1a
.	2d	.	2a	.	.
=157	=157	=157	=157	=157	=157
2.A	2.c	2.e	2.a	0r	0r
4A	4c	4e	4a	.	.
2A	2c	2e	2a	.	.
2B	2d	2d	2g	.	.
=158	=158	=158	=158	=158	=158
2c	2e	2c	2g	0r	0r
2A	2c	2e	2a	.	.
1G	2d	1g	1b-	.	.
.	2e	.	.	.	.
=159	=159	=159	=159	=159	=159
1F	1f	2c	1a	2r	2r
.	.	2a	.	2cc	2a
1r	1e	2a	1r	2cc	2.ee
.	.	2g	.	2b	.
.	.	.	.	.	4ee
=160	=160	=160	=160	=160	=160
0r	0r	2a	0r	2cc	2ee
.	.	2d	.	2a	2ff
.	.	2e	.	2g	2gg
.	.	2c	.	[2cc	2ee
=161	=161	=161	=161	=161	=161
1r	1r	1g	1r	2cc]	1dd
.	.	.	.	2b	.
[1F	2r	1a	2r	2cc	2cc
.	[2c	.	[2f	[2a	[2cc
=162	=162	=162	=162	=162	=162
2F]	2c]	2.A	2f]	2a]	2cc]
2F	2c	.	2f	2a	2cc
.	.	4A	.	.	.
2F	2c	2A	2a	2cc	2ff
2F	2c	2A	2a	2cc	2ff
=163	=163	=163	=163	=163	=163
1F	1f	1c	1a	1cc	1ff
1C	2g	1c	2g	1cc	1ee
.	[2G	.	2g	.	.
=164	=164	=164	=164	=164	=164
2G	2G]	2d	2g	2b	2dd
2G	2B	2d	1g	2g	2dd
1D	1A	1d	.	1a	1dd
.	.	.	2f#	.	.
=165	=165	=165	=165	=165	=165
1G	2G	1B	1g	2b	2dd
.	1g	.	.	1b	1dd
1r	.	1r	2r	.	.
.	2e	.	[2g	2g	2cc
=166	=166	=166	=166	=166	=166
0r	1d	0r	2g]	1a	1dd
.	.	.	2f#	.	.
.	1c	.	2g	1cc	1ee
.	.	.	2g	.	.
=167	=167	=167	=167	=167	=167
0r	2.A	0r	2.a	2.cc	2.ee
.	4A	.	4a	4cc	4ee
.	2e	.	1b	2g	2ee
.	2g	.	.	2g	2dd
=168	=168	=168	=168	=168	=168
0r	4c	0r	1cc	1.g	1ee
.	4d	.	.	.	.
.	4e	.	.	.	.
.	4f#	.	.	.	.
.	2g	.	2b	.	1dd
.	2f	.	2a	2a	.
=169	=169	=169	=169	=169	=169
0r	2e	0r	2g	2b	2ee
.	2c	.	1a	2cc	2ee
.	1e	.	.	1b	1ee
.	.	.	2g#	.	.
=170	=170	=170	=170	=170	=170
2r	2A	2r	1a	2cc	1ee
2A	2c	2e	.	2a	.
1F	1c	1f	1r	1a	1r
=171	=171	=171	=171	=171	=171
2C	2c	2e	0r	2g	0r
2C	2e	2g	.	2cc	.
2D	2d	2f	.	2a	.
2C	2g	2e	.	2cc	.
=172	=172	=172	=172	=172	=172
1.G	1g	2.d	0r	2.b	0r
.	.	4c	.	4a	.
.	1d	2B	.	2g	.
2F	.	4A	.	[2a	.
.	.	4B	.	.	.
=173	=173	=173	=173	=173	=173
1E	2e	4c	0r	4a]	0r
.	.	4B	.	4g	.
.	2c	4A	.	1g	.
.	.	4G	.	.	.
1D	1d	1A	.	.	.
.	.	.	.	2f#	.
=174	=174	=174	=174	=174	=174
2C	1e	2c	2r	2g	2r
2C	.	2c	2g	2cc	2ee
1F	1r	1A	1a	1cc	1ff
=175	=175	=175	=175	=175	=175
1C	0r	2c	2g	1cc	2ee
.	.	2e	2g	.	2gg
1r	.	2d	2a	1r	2ff
.	.	2c	2cc	.	2ee
=176	=176	=176	=176	=176	=176
0r	0r	2g	2.b	0r	2.dd
.	.	2d	.	.	.
.	.	.	4a	.	4cc
.	.	2e	2g	.	2b
.	.	[2f	[2a	.	4a
.	.	.	.	.	4b
=177	=177	=177	=177	=177	=177
1r	0r	4f]	4a]	1r	4cc
.	.	4g	4g	.	4b
.	.	2e	1g	.	4b
.	.	.	.	.	8a
.	.	.	.	.	8g
1D	.	2d	.	2r	1a
.	.	[2d	2f#	2a	.
=178	=178	=178	=178	=178	=178
2.G	1d	2d]	1g	1b	1g
.	.	2.g	.	.	.
4F	.	.	.	.	.
2.E	2.g	.	1G	1b	2r
.	.	4f	.	.	.
.	.	[2e	.	.	[2gg
4D	4f	.	.	.	.
=179	=179	=179	=179	=179	=179
0C	2.e	4e]	2.g	2.cc	4gg]
.	.	4d	.	.	4ff
.	.	2.c	.	.	2.ee
.	4d	.	4f	4cc	.
.	1c	.	1e	1g	.
.	.	8B	.	.	4dd
.	.	8A	.	.	.
.	.	[2G	.	.	[2cc
=180	=180	=180	=180	=180	=180
1G	2d	4G]	1d	2.g	2cc]
.	.	4A	.	.	.
.	1G	2B	.	.	2b
.	.	.	.	4f	.
1C	.	1G	1g	1e	1cc
.	[2c	.	.	.	.
=181	=181	=181	=181	=181	=181
[0G	2c]	[0G	[0g	[0d	[0dd
.	4B	.	.	.	.
.	4A	.	.	.	.
.	1B	.	.	.	.
=182	=182	=182	=182	=182	=182
0G]	0B	0G]	0g]	0d]	0dd]
==	==	==	==	==	==
*-	*-	*-	*-	*-	*-
!!!CDT: 1525/^1526/-1594/2/2
!!!OCY: Italia
!!!AGN: Mass (Paraphrase)
!!!AST: renaissance, vocal
!!!ASW: Antiphon
!!!PWK: Masses, Book 12
!!!RNB: Cadence finals: C
!!!YOR: Le Opere Complete, v. 29, p. 123
!!!YOO: Rome, Italy: Fratelli Scalera
!!!END: 1992//
!!!EED: John Miller
!!!YEC: Copyright 2000, John Miller
!!!YEN: United States of America
!!!YEM: Rights to all derivative electronic formats reserved.
!!!YEM: Refer to licensing agreement for further details.
!!!YEM: This file must be accompanied by the licensing agreement.
!!!YEM: A copy of the licensing agreement may be found at http://www.music-cog.ohio-state.edu/HumdrumDatabases/Palestrina/license.txt
!!!EMD: converted to Humdrum by Bret Aarden
